packages/foundations/assets/icons/functional/images/audio & video/fast_forward_30_24.svg

<svg width="24" height="24" viewBox="0 0 24 24" fill="none" xmlns="http://www.w3.org/2000/svg">
<g clip-path="url(#clip0_184_295)">
<path fill-rule="evenodd" clip-rule="evenodd" d="M11.288 11.9999C12.816 11.9999 13.926 12.9899 13.926 14.3539C13.926 14.8899 13.77 15.3639 13.459 15.7769C13.998 16.2309 14.322 16.9099 14.322 17.7089C14.322 20.7519 10.602 20.9309 9.201 20.9989L9.152 20.9999C8.88678 21.0061 8.62995 20.9067 8.43801 20.7236C8.24607 20.5405 8.13473 20.2886 8.1285 20.0234C8.12227 19.7581 8.22165 19.5013 8.40478 19.3094C8.58791 19.1174 8.83978 19.0061 9.105 18.9999C12.137 18.8539 12.31 18.1379 12.32 17.7709V17.7089C12.32 17.5779 12.32 17.1779 11.72 17.1779C11.396 17.1779 11.185 17.1989 10.494 17.3359C10.237 17.3858 9.97072 17.3329 9.75228 17.1886C9.53385 17.0443 9.38069 16.8202 9.32571 16.5642C9.27072 16.3083 9.31829 16.041 9.4582 15.8197C9.59811 15.5985 9.8192 15.4409 10.074 15.3809C10.63 15.2509 11.924 14.8909 11.924 14.3539C11.924 14.0269 11.437 14.0009 11.288 14.0009C10.828 14.0009 10.351 14.1309 9.786 14.4089C9.66814 14.4669 9.54 14.5012 9.4089 14.5097C9.27779 14.5182 9.1463 14.5008 9.02191 14.4585C8.89753 14.4162 8.78269 14.3499 8.68396 14.2632C8.58523 14.1765 8.50454 14.0712 8.4465 13.9534C8.38846 13.8355 8.35419 13.7074 8.34567 13.5763C8.33715 13.4452 8.35453 13.3137 8.39683 13.1893C8.43913 13.0649 8.50551 12.9501 8.59219 12.8513C8.67886 12.7526 8.78414 12.6719 8.902 12.6139C9.752 12.1959 10.51 11.9999 11.288 11.9999ZM10.156 2.99986C10.375 2.99986 10.625 3.06286 10.812 3.21886L13.094 5.53086C13.1862 5.61966 13.2588 5.72672 13.3071 5.84519C13.3555 5.96367 13.3786 6.09094 13.375 6.21886C13.3786 6.35125 13.3555 6.48301 13.3073 6.60634C13.259 6.72967 13.1865 6.84206 13.094 6.93686L10.906 9.15686C10.719 9.34386 10.469 9.43686 10.156 9.43686C9.625 9.43686 9.187 8.96886 9.187 8.43686C9.187 8.18686 9.281 7.93686 9.5 7.74986L10.063 7.12486C6.937 7.34386 4.5 9.96886 4.5 13.1249C4.5 14.6559 5.125 16.1879 6.281 17.3749C6.37094 17.4654 6.44215 17.5727 6.49054 17.6908C6.53893 17.8088 6.56355 17.9353 6.563 18.0629C6.563 18.6249 6.093 19.0629 5.563 19.0629C5.43541 19.0634 5.30896 19.0388 5.19091 18.9904C5.07285 18.942 4.9655 18.8708 4.875 18.7809C4.12269 18.0371 3.5254 17.1515 3.11773 16.1753C2.71005 15.1991 2.50009 14.1518 2.5 13.0939C2.5 8.93786 5.719 5.46886 9.875 5.12486L9.469 4.71886C9.3615 4.6256 9.27519 4.51043 9.21586 4.38108C9.15653 4.25172 9.12555 4.11117 9.125 3.96886C9.125 3.43786 9.594 2.99986 10.156 2.99986ZM18.5 11.9999C20.281 11.9999 21.5 13.3479 21.5 15.3549V17.6449C21.5 19.6519 20.281 20.9999 18.5 20.9999C16.687 20.9999 15.5 19.6519 15.5 17.6759V15.2929C15.5 13.2859 16.688 11.9999 18.5 11.9999ZM18.5 13.9999C17.875 13.9999 17.5 14.4719 17.5 15.2579V17.6789C17.5 18.5289 17.875 18.9999 18.5 18.9999C19.125 18.9999 19.5 18.5279 19.5 17.6479V15.3519C19.5 14.5029 19.125 13.9999 18.5 13.9999Z" fill="#1A1C1F"/>
</g>
<defs>
<clipPath id="clip0_184_295">
<rect width="24" height="24" fill="white"/>
</clipPath>
</defs>
</svg>

<svg xmlns="http://www.w3.org/2000/svg" width="24" height="24" fill="none"><g clip-path="url(#a)"><path fill="#1A1C1F" fill-rule="evenodd" d="M11.288 12c1.528 0 2.638.99 2.638 2.354q0 .804-.467 1.423c.539.454.863 1.133.863 1.932 0 3.043-3.72 3.222-5.121 3.29h-.049a1 1 0 0 1-.047-2c3.032-.145 3.205-.861 3.215-1.228v-.062c0-.131 0-.531-.6-.531-.324 0-.535.02-1.226.158a1 1 0 0 1-.42-1.955c.556-.13 1.85-.49 1.85-1.027 0-.327-.487-.353-.636-.353-.46 0-.937.13-1.502.408a1 1 0 0 1-.884-1.795c.85-.418 1.608-.614 2.386-.614m-1.132-9c.219 0 .469.063.656.219l2.282 2.312a.92.92 0 0 1 .281.688 1 1 0 0 1-.281.718l-2.188 2.22q-.28.28-.75.28c-.531 0-.969-.468-.969-1 0-.25.094-.5.313-.687l.563-.625c-3.126.219-5.563 2.844-5.563 6 0 1.53.625 3.063 1.781 4.25a.97.97 0 0 1 .282.688c0 .562-.47 1-1 1a.97.97 0 0 1-.688-.282A8 8 0 0 1 2.5 13.094c0-4.156 3.219-7.625 7.375-7.97l-.406-.405a1 1 0 0 1-.344-.75c0-.531.469-.97 1.031-.97m8.344 9c1.781 0 3 1.348 3 3.355v2.29c0 2.007-1.219 3.355-3 3.355-1.813 0-3-1.348-3-3.324v-2.383c0-2.007 1.188-3.293 3-3.293m0 2c-.625 0-1 .472-1 1.258v2.42c0 .85.375 1.322 1 1.322s1-.472 1-1.352v-2.296c0-.85-.375-1.352-1-1.352" clip-rule="evenodd"/></g><defs><clipPath id="a"><path fill="#fff" d="M0 0h24v24H0z"/></clipPath></defs></svg>
